X: 29
T: Leather Breeches
M:2/4
L:1/8
S: Viola "Mom" Ruth - Pioneer Western Folk Tunes (1948)
Z:AK/Fiddler's Companion
K:G
|:D/G/B/G/ A/G/B/G/|D/G/B/G/ A/G/E/G/|D/G/B/G/ A/G/B/G/|
D/E/D/C/ B,/(A,/ G,)| D/G/B/G/ A/G/B/G/|D/G/B/G/ A/G/E/G/|
c/B/A/G/ FD/D/|D/G/G/A/ B/G/G||
K:D
d>ddd|A/d/d/e/ f/(d/d)|d>ddd|A/B/A/G/ (F/E/)D|d>ddd|
A/d/d/e/ f/(d/d)|g/f/e/d/ c>A|A/d/d/e/ (f/d/)d:|
K:G
|:d/g/b/g/ a/g/b/g/|d/g/b/g/ a/g/e/g/|d/g/b/g/ a/g/b/g/|d/e/d/c/ B/A/G:|

%%sep 1 1 500
